actions/16/gwibber-stream-messages.svg

<?xml version="1.0" encoding="UTF-8"?>
<svg id="b" width="16" height="16" version="1.1" xmlns="http://www.w3.org/2000/svg" xmlns:cc="http://creativecommons.org/ns#" xmlns:dc="http://purl.org/dc/elements/1.1/" xmlns:rdf="http://www.w3.org/1999/02/22-rdf-syntax-ns#">
	<metadata id="d">
		<rdf:RDF>
			<cc:Work rdf:about="">
				<dc:format>image/svg+xml</dc:format>
				<dc:type rdf:resource="http://purl.org/dc/dcmitype/StillImage"/>
				<dc:title/>
			</cc:Work>
		</rdf:RDF>
	</metadata>
	<defs>
		<style id="current-color-scheme" type="text/css">.ColorScheme-Text {color:#090d11;}.ColorScheme-Background{color:#ffffff;}</style>
	</defs>
	<g id="e">
		<path id="a" d="m3 1v1h10v-1zm-1 2v2h12v-2zm-1 3v0.59375l7 3.4063 7-3.4063v-0.59375zm0 1.25v7.75h14v-7.75l-7 4.75z" style="fill-opacity:.75;fill:currentColor" class="ColorScheme-Text"/>
		<path id="c" d="m2 0v1h12v-1h-11zm-1 2v2h1v-1h12v1h1v-2h-13zm-1 3v11h16v-11h-15zm1 1h14v0.59375l-7 3.4062-7-3.4062zm0 1.25 7 4.75 7-4.75v7.75h-14z" style="fill-opacity:.5;fill:currentColor" class="ColorScheme-Background"/>
	</g>
</svg>

<?xml version="1.0" encoding="UTF-8" standalone="no"?>
<!-- Created with Inkscape (http://www.inkscape.org/) -->

<svg
   xmlns:dc="http://purl.org/dc/elements/1.1/"
   xmlns:cc="http://creativecommons.org/ns#"
   xmlns:rdf="http://www.w3.org/1999/02/22-rdf-syntax-ns#"
   xmlns:svg="http://www.w3.org/2000/svg"
   xmlns="http://www.w3.org/2000/svg"
   xmlns:sodipodi="http://sodipodi.sourceforge.net/DTD/sodipodi-0.dtd"
   xmlns:inkscape="http://www.inkscape.org/namespaces/inkscape"
   width="16.000004"
   height="16.000004"
   id="svg13094"
   version="1.1"
   inkscape:version="0.48.3.1 r9886"
   sodipodi:docname="gwibber-stream-messages.svg">
  <sodipodi:namedview
     id="base"
     pagecolor="#ffffff"
     bordercolor="#666666"
     borderopacity="1.0"
     inkscape:pageopacity="0.0"
     inkscape:pageshadow="2"
     inkscape:zoom="45.254835"
     inkscape:cx="10.542851"
     inkscape:cy="8.3040301"
     inkscape:document-units="px"
     inkscape:current-layer="svg13094"
     showgrid="true"
     inkscape:snap-bbox="true"
     inkscape:bbox-paths="true"
     inkscape:bbox-nodes="true"
     inkscape:snap-bbox-edge-midpoints="true"
     inkscape:snap-bbox-midpoints="true"
     inkscape:object-paths="true"
     inkscape:snap-intersection-paths="true"
     inkscape:object-nodes="true"
     inkscape:snap-smooth-nodes="true"
     inkscape:snap-midpoints="true"
     inkscape:snap-object-midpoints="true"
     inkscape:snap-center="true"
     showguides="true"
     inkscape:guide-bbox="true"
     inkscape:window-width="1920"
     inkscape:window-height="1032"
     inkscape:window-x="-7"
     inkscape:window-y="25"
     inkscape:window-maximized="1"
     inkscape:snap-global="true"
     fit-margin-top="0"
     fit-margin-left="0"
     fit-margin-right="0"
     fit-margin-bottom="0"
     showborder="true"
     inkscape:showpageshadow="false">
    <inkscape:grid
       type="xygrid"
       id="grid3075"
       empspacing="5"
       visible="true"
       enabled="true"
       snapvisiblegridlinesonly="true"
       originx="1.6362304e-08px"
       originy="4.9999976px" />
  </sodipodi:namedview>
  <defs
     id="defs13096">
    <inkscape:path-effect
       effect="spiro"
       id="path-effect2987"
       is_visible="true" />
  </defs>
  <metadata
     id="metadata13099">
    <rdf:RDF>
      <cc:Work
         rdf:about="">
        <dc:format>image/svg+xml</dc:format>
        <dc:type
           rdf:resource="http://purl.org/dc/dcmitype/StillImage" />
        <dc:title />
      </cc:Work>
    </rdf:RDF>
  </metadata>
  <path
     sodipodi:nodetypes="cccccccccccccccccccccc"
     inkscape:connector-curvature="0"
     id="path2986"
     d="M 3,1 3,2 13,2 13,1 z M 2,3 2,5 14,5 14,3 z M 1,6 1,6.59375 8,10.000006 15,6.59375 15,6 z M 1,7.25 1,15 15,15 15,7.25 8,12.000006 z"
     style="color:#000000;fill:#27303a;fill-opacity:0.753280819999999968;fill-rule:nonzero;stroke:none;stroke-width:4;marker:none;visibility:visible;display:inline;overflow:visible;enable-background:accumulate" />
  <path
     style="font-size:medium;font-style:normal;font-variant:normal;font-weight:normal;font-stretch:normal;text-indent:0;text-align:start;text-decoration:none;line-height:normal;letter-spacing:normal;word-spacing:normal;text-transform:none;direction:ltr;block-progression:tb;writing-mode:lr-tb;text-anchor:start;baseline-shift:baseline;color:#000000;fill:#f1f3f5;fill-opacity:0.90288714000000003;fill-rule:nonzero;stroke:none;stroke-width:2;marker:none;visibility:visible;display:inline;overflow:visible;enable-background:accumulate;font-family:Sans;-inkscape-font-specification:Sans"
     d="M 2 0 L 2 1 L 3 1 L 13 1 L 14 1 L 14 0 L 13 0 L 3 0 L 2 0 z M 1 2 L 1 3 L 1 4 L 2 4 L 2 3 L 14 3 L 14 4 L 15 4 L 15 3 L 15 2 L 14 2 L 13 2 L 3 2 L 2 2 L 1 2 z M 0 5 L 0 5.375 L 0 6 L 0 6.59375 L 0 7.21875 L 0 7.25 L 0 15 L 0 16 L 1 16 L 15 16 L 16 16 L 16 15 L 16 7.25 L 16 7.21875 L 16 6.59375 L 16 6 L 16 5.375 L 16 5 L 15 5 L 14 5 L 2 5 L 1 5 L 0 5 z M 1 6 L 15 6 L 15 6.59375 L 8 10 L 1 6.59375 L 1 6 z M 1 7.25 L 8 12 L 15 7.25 L 15 15 L 1 15 L 1 7.25 z "
     id="rect3757" />
</svg>
